icons/entity/icon_moneybox_xl_black.svg

<?xml version="1.0" encoding="UTF-8"?>
<svg width="36px" height="36px" viewBox="0 0 36 36" version="1.1" xmlns="http://www.w3.org/2000/svg" xmlns:xlink="http://www.w3.org/1999/xlink">
    <!-- Generator: Sketch 47.1 (45422) - http://www.bohemiancoding.com/sketch -->
    <title>icon_category_moneybox__xl__black</title>
    <desc>Created with Sketch.</desc>
    <defs></defs>
    <g id="Page-1" stroke="none" stroke-width="1" fill="none" fill-rule="evenodd">
        <g id="icon_category_moneybox__xl__black">
            <rect id="Rectangle-2-Copy" fill-opacity="0" fill="#FFFFFF" x="0" y="0" width="36" height="36"></rect>
            <path d="M5.58201482,10.0739421 C5.53674565,10.1055357 5.50446098,10.1408877 5.48234386,10.1765451 L5.58201482,10.0739421 Z M5.35628727,10.173708 C5.30208025,10.0803687 5.23005093,9.96862482 5.12448707,9.81249067 C5.08803679,9.75857891 4.88167106,9.45704391 4.82070767,9.36655471 C4.72005583,9.21715512 4.63678208,9.08943107 4.56057076,8.96620251 C3.93328598,7.95192531 3.78469151,7.21857555 4.53891451,6.80055233 C5.12518237,6.47561715 5.90697063,6.66020963 7.11126615,7.20782574 C7.26854703,7.27934435 7.4322314,7.35672689 7.62515986,7.45018462 C8.8175847,8.02781491 9.21542964,8.19471261 9.22413741,8.1902405 C12.2123718,6.65555222 14.4371804,6 17.1017909,6 C25.0208466,6 31.0024261,10.8618249 31.0024261,17.1557692 C31.0024261,20.4269403 29.3560006,23.4247375 26.4930643,25.4984549 C26.4931361,25.6213143 26.5070995,25.8075554 26.5354556,26.0524513 C26.5951158,26.5677023 26.7163499,27.3270362 26.8989512,28.3273277 L26.9657482,28.693242 L23.6893224,29.7553092 L23.5107411,29.4878576 C23.0329648,28.7723182 22.6576635,28.2431604 22.3875364,27.9033796 C22.2852313,27.7746946 22.199855,27.6756169 22.1340855,27.6080412 C20.5653379,28.0717872 18.8718071,28.3115385 17.1017909,28.3115385 C15.2973813,28.3115385 13.3080567,27.9469024 11.2600055,27.2720562 C11.1716322,27.3580959 11.0512172,27.4889207 10.901508,27.6623749 C10.5557899,28.0629266 10.0630456,28.6797069 9.42522793,29.5106346 L9.2462407,29.7438132 L5.77098818,28.6912953 L5.87678377,28.2942286 C6.17020998,27.192956 6.36531647,26.3561577 6.46165559,25.7883173 C6.50751002,25.5180429 6.52995722,25.3138788 6.53003674,25.1827423 C6.53003828,25.1802054 6.5182609,25.1460912 6.49470462,25.0803996 C5.53151839,22.9729208 3.40532196,21.1963768 0.250829697,19.7791513 L0,19.6664605 L6.50035581e-14,15.2412692 L0.252368402,15.1290878 C2.34284565,14.1998401 3.37432348,13.2995835 4.54171914,11.5974519 C4.67402318,11.4045448 4.81078957,11.1989683 4.98989095,10.9251205 C5.03277899,10.8595443 5.27865043,10.4819669 5.41251399,10.2770475 C5.39807434,10.2481096 5.37931546,10.2133603 5.35628727,10.173708 Z M11.3369773,26.4016108 C13.3713615,27.0902853 15.340161,27.4615385 17.1017909,27.4615385 C18.8564617,27.4615385 20.5281264,27.2152697 22.0654634,26.7408494 C22.5146855,26.60222 22.8981099,27.050633 24.0386543,28.7485297 L25.996337,28.1139386 C25.582716,25.8193253 25.5228377,25.143811 25.8703277,24.898772 C28.5968325,22.976127 30.1524261,20.1905064 30.1524261,17.1557692 C30.1524261,11.3746127 24.5857241,6.85 17.1017909,6.85 C14.5890624,6.85 12.4900641,7.46848154 9.61245935,8.94635297 C9.32881833,9.09202446 9.01562498,9.02196643 8.50275627,8.80681576 C8.33658229,8.73710504 8.15154216,8.65172331 7.90638629,8.53324883 C7.79653842,8.48016355 7.35978446,8.26611182 7.25459495,8.21515629 C7.06738086,8.12446669 6.90961226,8.04988086 6.75942233,7.98158664 C5.81661141,7.55287255 5.19834632,7.40689046 4.95096543,7.54399972 C4.840273,7.60535029 4.89967435,7.89851038 5.28348781,8.51911086 C5.3531133,8.63169058 5.43067712,8.75065683 5.52565079,8.8916282 C5.58441675,8.9788557 5.79025018,9.27961292 5.82864579,9.33640192 C5.94419956,9.50731164 6.02518669,9.63295237 6.09132356,9.74683369 C6.33817886,10.1718947 6.42361611,10.4677392 6.14303282,10.712988 C6.01586266,10.9075308 5.74698561,11.3204518 5.70125916,11.3903681 C5.51904306,11.6689783 5.37913469,11.8792776 5.24269647,12.0782125 C4.03785733,13.8349389 2.92681074,14.831607 0.85,15.791447 C0.85,16.0853767 0.85,16.3308939 0.85,17.4664237 C0.85,18.585925 0.85,18.8379752 0.85,19.1181544 C4.00702934,20.5796905 6.18768141,22.4243683 7.23546664,24.6572806 C7.52954764,25.0331596 7.36613084,25.9712836 6.80324266,28.1157969 L8.93009407,28.7599369 C10.5402371,26.6667269 10.9122591,26.2578363 11.3369773,26.4016108 Z" id="Oval-Copy" fill="#0B1F35" fill-rule="nonzero"></path>
            <path d="M14.3723352,11.0721952 C16.5624941,10.4052319 18.8723534,10.4203457 20.7825945,11.0653152 L21.2624382,9.64413611 C19.0512028,8.89753958 16.4209362,8.88032934 13.9353571,9.63725613 L14.3723352,11.0721952 Z" id="Path-2-Copy" fill="#0B1F35" fill-rule="nonzero" opacity="0.300000012"></path>
            <circle id="Oval-2-Copy" fill="#0B1F35" opacity="0.300000012" cx="7.60576923" cy="15.4519231" r="1.29807692"></circle>
            <path d="M34.0464145,14.9086682 C34.0464145,14.4599694 33.761823,14.2054778 33.3521515,14.2108441 C32.9391066,14.2162545 32.6368421,14.4854767 32.6300944,14.9155442 C32.618623,15.6466902 32.8633037,16.2217606 33.417138,16.6123261 C33.8656343,16.2347723 34.0464145,15.6713304 34.0464145,14.9086682 Z M33.4454653,17.5869013 C32.8422353,17.8948026 32.0349295,18.0522452 31,18.0522452 L31,17.2022452 C31.653216,17.2022452 32.1820515,17.142796 32.6042004,17.0211843 C32.9395463,16.9245785 33.2075689,16.7887459 33.417138,16.6123261 C33.636185,16.7667987 33.9035924,16.8924095 34.2226392,16.9873997 C34.6972304,17.1287002 35.2860862,17.2022452 36,17.2022452 L36,18.0522452 C34.9512612,18.0522452 34.1000895,17.8905114 33.4454653,17.5869013 C33.1149989,17.4336334 32.834621,17.2442095 32.6042004,17.0211843 C32.0577937,16.4923145 31.7923111,15.7744952 31.8060035,14.9017922 C31.8204193,13.9829902 32.5065643,13.3718517 33.341684,13.3609126 C34.1884005,13.3498216 34.8706133,13.9598797 34.8706133,14.9086682 C34.8706133,15.7770238 34.6654411,16.4731431 34.2226392,16.9873997 C34.0162838,17.2270546 33.7583208,17.4272133 33.4454653,17.5869013 Z" id="Path-3-Copy" fill="#0B1F35" fill-rule="nonzero"></path>
        </g>
    </g>
</svg>

<svg width="36" height="36" viewBox="0 0 36 36" xmlns="http://www.w3.org/2000/svg">
  <g fill="none" fill-rule="evenodd">
    <path fill="none" d="M0 0h36v36H0z"/>
    <path d="M5.582 10.074c-.045.032-.078.067-.1.103l.1-.103zm-.226.1c-.054-.094-.126-.205-.232-.362l-.303-.445c-.1-.15-.183-.278-.26-.4-.627-1.015-.775-1.748-.02-2.166.585-.324 1.367-.14 2.57.408.16.07.322.15.515.242 1.193.578 1.59.745 1.6.74C12.21 6.656 14.436 6 17.1 6c7.92 0 13.9 4.862 13.9 11.156 0 3.27-1.646 6.27-4.51 8.342 0 .123.015.31.043.554.06.516.18 1.275.364 2.275l.066.366-3.277 1.062-.18-.267c-.477-.716-.852-1.245-1.122-1.585-.103-.128-.188-.227-.254-.295-1.57.464-3.262.704-5.032.704-1.805 0-3.794-.365-5.842-1.04-.088.086-.21.217-.358.39-.346.4-.84 1.018-1.477 1.85l-.18.232-3.474-1.053.107-.396c.293-1.1.488-1.938.585-2.506.046-.27.068-.474.068-.605l-.035-.103c-.963-2.107-3.09-3.884-6.244-5.3L0 19.665V15.24l.252-.11c2.09-.93 3.122-1.83 4.29-3.533.132-.192.27-.398.448-.672l.423-.648c-.015-.03-.034-.064-.057-.103zm5.98 16.228c2.035.688 4.004 1.06 5.766 1.06 1.754 0 3.426-.247 4.963-.72.45-.14.833.31 1.974 2.007l1.956-.636c-.413-2.295-.473-2.97-.126-3.215 2.727-1.924 4.282-4.71 4.282-7.744 0-5.78-5.566-10.306-13.05-10.306-2.513 0-4.612.618-7.49 2.096-.283.146-.596.076-1.11-.14-.165-.07-.35-.154-.596-.273l-.65-.318c-.19-.09-.346-.165-.497-.233-.943-.43-1.562-.575-1.81-.438-.11.06-.05.355.333.975.07.112.148.23.243.372.058.087.264.388.303.444.114.17.195.297.26.41.248.426.334.722.053.967l-.442.677c-.18.28-.32.49-.457.688C4.038 13.835 2.927 14.832.85 15.79v3.328c3.157 1.462 5.338 3.306 6.385 5.54.295.375.13 1.313-.432 3.458l2.127.644c1.61-2.093 1.982-2.502 2.407-2.358z" fill="#0B1F35" fill-rule="nonzero"/>
    <path d="M14.372 11.072c2.19-.667 4.5-.652 6.41-.007l.48-1.42c-2.21-.747-4.84-.765-7.327-.008l.437 1.435z" fill="#0B1F35" fill-rule="nonzero" opacity=".3"/>
    <circle fill="#0B1F35" opacity=".3" cx="7.606" cy="15.452" r="1.298"/>
    <path d="M34.046 14.91c0-.45-.284-.705-.694-.7-.413.006-.715.275-.722.706-.01.73.233 1.306.787 1.696.45-.377.63-.94.63-1.703zm-.6 2.677c-.604.308-1.41.465-2.446.465v-.85c.653 0 1.182-.06 1.604-.18.336-.097.604-.233.813-.41.22.155.487.28.806.375.474.142 1.063.215 1.777.215v.85c-1.05 0-1.9-.16-2.555-.465-.33-.153-.61-.343-.84-.566-.547-.528-.813-1.246-.8-2.118.015-.92.702-1.53 1.537-1.54.846-.012 1.53.598 1.53 1.547 0 .867-.207 1.563-.65 2.077-.206.24-.464.44-.777.6z" fill="#0B1F35" fill-rule="nonzero"/>
  </g>
</svg>
